!!!COM:	la Rue, Pierre de
!!!CDT:	~1452///-1518/11/20
!!!OPR:	Missa De feria
!!!ONM:	5
!!!OTL:	Agnus Dei
!!!AGN:	Mass; Agnus Dei
!!!SCT:	Rue1009e
!!!SCA:	Rue1009e
!!!voices:	5
!!!voices-OPR:	5
**kern	**kern	**kern	**kern	**kern
*staff5	*staff4	*staff3	*staff2	*staff1
*Ivox	*Ivox	*Ivox	*Ivox	*Ivox
*I"Bassus	*I"Tenor2	*I"Tenor1	*I"Contra	*I"Discantus
*I'B	*I'T2	*I'T1	*I'C	*I'D
*>[A,B,C]	*>[A,B,C]	*>[A,B,C]	*>[A,B,C]	*>[A,B,C]
*>A	*>A	*>A	*>A	*>A
*clefF4	*clefGv2	*clefGv2	*clefGv2	*clefG2
*k[]	*k[]	*k[]	*k[]	*k[]
*M2/1	*M2/1	*M2/1	*M2/1	*M2/1
*met(C)	*met(C)	*met(C)	*met(C)	*met(C)
!!section: Agnus Dei I
!!!OMD: Agnus Dei I
=1-	=1-	=1-	=1-	=1-
!	!	!LO:TX:X=-40:Z=8:t=Canon at the lower fifth (four breves)	!	!
0E	0r	[0B	0r	0e
=2	=2	=2	=2	=2
1E	0r	0B]	0r	1.g
[1G	.	.	.	.
.	.	.	.	4f/
.	.	.	.	4e/
=3	=3	=3	=3	=3
2G\]	0r	1.d	0r	2d/
4F\	.	.	.	2e/
4E\	.	.	.	.
2D\	.	.	.	2f/
2E\	.	4c\	.	[2e/
.	.	4B\	.	.
=4	=4	=4	=4	=4
1F	0r	2A/	0r	2e/]
.	.	2B\	.	2d/
1E	.	1c	.	[1e
=5	=5	=5	=5	=5
0r	[0E	0B	0r	1e]
.	.	.	.	2r
.	.	.	.	2e/
=6	=6	=6	=6	=6
0r	0E]	1r	0r	2e/
.	.	.	.	2e/
.	.	1B	.	[1g
=7	=7	=7	=7	=7
0r	1.G	2B\	0r	2g/]
.	.	1d	.	4f/
.	.	.	.	4e/
.	.	.	.	2.d/
.	4F/	2d\	.	.
.	4E/	.	.	4e/
=8	=8	=8	=8	=8
0r	2D/	1d	1r	2f/
.	2E/	.	.	2g/
.	1F	1d	1D	1a
=9	=9	=9	=9	=9
0C	0E	0e	1G	0g
.	.	.	2G/	.
.	.	.	[2G/	.
=10	=10	=10	=10	=10
2BB/	1r	2d\	2G/]	1r
2GG/	.	2B\	2G/	.
1AA	1E	1c	4C/	1a
.	.	.	4D/	.
.	.	.	4E/	.
.	.	.	4F/	.
=11	=11	=11	=11	=11
0GG	2E/	0B	2G/	1b
.	1G	.	2E/	.
.	.	.	[1D	2b\
.	2G/	.	.	[2g/
=12	=12	=12	=12	=12
1BB	1G	0r	0D]	2g/]
.	.	.	.	4f/
.	.	.	.	4e/
1BB	1G	.	.	1d
=13	=13	=13	=13	=13
0AA	0A	0r	2E/	2.c/
.	.	.	2F/	.
.	.	.	.	4d/
.	.	.	2E/	2e/
.	.	.	[2c\	[2f/
=14	=14	=14	=14	=14
1C	2G/	0r	2c\]	4f/]
.	.	.	.	4e/
.	2E/	.	2c\	1e
1D	1F	.	1A	.
.	.	.	.	2d/
=15	=15	=15	=15	=15
2r	0E	1B	1G	0e
2.G\	.	.	.	.
.	.	2B\	2r	.
4F\	.	.	.	.
4E\	.	[2c\	[2G/	.
4D\	.	.	.	.
=16	=16	=16	=16	=16
2C/	0r	2c\]	2G/]	0r
2E\	.	4B\	4F/	.
.	.	4A/	4E/	.
2D\	.	2B\	2F/	.
2C/	.	2c\	2E/	.
=17	=17	=17	=17	=17
1D	0r	2A/	2.F/	1r
.	.	1d	.	.
.	.	.	4D/	.
1AA	.	.	1E	1e
.	.	2c\	.	.
=18	=18	=18	=18	=18
2D\	0r	4d\	1D	2f/
.	.	4c\	.	.
2F\	.	4B\	.	2.a/
.	.	4A/	.	.
1E	.	1B	1r	.
.	.	.	.	4g#i/
.	.	.	.	2g#i/
=19	=19	=19	=19	=19
[0AA	1E	[0A	0c	0a
.	2E/	.	.	.
.	[2F/	.	.	.
=20	=20	=20	=20	=20
0AA]	2F/]	0A]	1c	2r
.	4E/	.	.	1a
.	4D/	.	.	.
.	2E/	.	1c	.
.	2F/	.	.	[2a/
=21	=21	=21	=21	=21
0r	2D/	0r	1d	2a/]
.	1G	.	.	2.b-i\
.	.	.	1d	.
.	.	.	.	4g/
.	2F/	.	.	2a/
=22	=22	=22	=22	=22
0r	4G/	1r	1d	4b-i\
.	4F/	.	.	4a/
.	4E/	.	.	4g/
.	4D/	.	.	4f/
.	1E	1G	1c	1g
=23	=23	=23	=23	=23
0r	[0D	1A	[0d	2.f/
.	.	.	.	4g/
.	.	2A/	.	4a/
.	.	.	.	4g/
.	.	[2B-i\	.	4f/
.	.	.	.	4e/
=24	=24	=24	=24	=24
1r	0D]	2B-i\]	0d]	2d/
.	.	4A/	.	1g
.	.	4G/	.	.
1D	.	1A	.	.
.	.	.	.	2f#i/
=25	=25	=25	=25	=25
1.E	0r	1G	0r	0g
.	.	2.c\	.	.
2D\	.	.	.	.
.	.	4B\	.	.
=26	=26	=26	=26	=26
2C/	1r	4A/	0r	1a
.	.	4G/	.	.
2BB/	.	1G	.	.
1AA	1C	.	.	1cc
.	.	2F#i/	.	.
=27	=27	=27	=27	=27
[0GG	1D	0G	2.d\	0b
.	.	.	4c\	.
.	2D/	.	4B\	.
.	.	.	4A/	.
.	[2E/	.	[2G/	.
=28	=28	=28	=28	=28
0GG]	2E/]	0r	2G/]	0g
.	4D/	.	1c	.
.	4C/	.	.	.
.	1D	.	.	.
.	.	.	2B\	.
=29	=29	=29	=29	=29
2r	1C	1r	1.c	0r
2C/	.	.	.	.
2AA/	2.F/	1c	.	.
2BB/	.	.	4B\	.
.	4E/	.	4A/	.
=30	=30	=30	=30	=30
2C/	4D/	1c	2G/	0r
.	4C/	.	.	.
2AA/	1C	.	2C/	.
1GG	.	1d	[1G	.
.	2BB/	.	.	.
=31	=31	=31	=31	=31
1r	0C	0e	1G]	2r
.	.	.	.	2g/
1C	.	.	1E	1g
=32	=32	=32	=32	=32
1.D	0r	1.f	2D/	2f/
.	.	.	1F	1a
4C/	.	4e\	2G/	2b\
4BB/	.	4d\	.	.
=33	=33	=33	=33	=33
2AA/	1r	2c\	0A	2cc\
2D\	.	2d\	.	2f/
2AA/	1F	2c\	.	2.cc\
[2D\	.	[2f\	.	.
.	.	.	.	4b\
=34	=34	=34	=34	=34
2D\]	1F	4f\]	0r	1a
.	.	4e\	.	.
2F\	.	1d	.	.
1E	1G	.	.	1g
.	.	2c#i\	.	.
=35	=35	=35	=35	=35
0D	0A	[0dl	1r	2f/
.	.	.	.	2.a/
.	.	.	1F	.
.	.	.	.	4g/
.	.	.	.	4f/
.	.	.	.	4e/
=36	=36	=36	=36	=36
2r	1.B-i	0d_	2.G/	2d/
2.GG/	.	.	.	1g
.	.	.	4A/	.
.	.	.	4B-i\	.
4AA/	.	.	4c\	.
4BB-i/	4A/	.	[2d\	4f/
4C/	4G/	.	.	4e/
=37	=37	=37	=37	=37
2D\	2F/	0d_	4d\]	2f/
.	.	.	4c\	.
2GG/	2G/	.	2B-i\	2.d/
2D\	2F/	.	2A/	.
.	.	.	.	4c/
[2G\	[2B-i\	.	2G/	4B-i/
.	.	.	.	4A/
=38	=38	=38	=38	=38
2G\]	4B-\]	0d_	2.B-i\	2G/
.	4A/	.	.	.
4F\	1G	.	.	2G/
4E\	.	.	4c\	.
2D\	.	.	1d	1A
2D\	2F#i/	.	.	.
=39	=39	=39	=39	=39
0GGl	0Gl	0d]	0Dl	0Bl
!!LO:LB:i:g=z
=40||	=40||	=40||	=40||	=40||
*>B	*>B	*>B	*>B	*>B
*clefF4	*clefGv2	*clefGv2	*clefGv2	*clefG2
*k[]	*k[]	*k[]	*k[]	*k[]
*M2/1	*M2/1	*M2/1	*M2/1	*M2/1
*met(C)	*met(C)	*met(C)	*met(C)	*met(C)
!!section: Agnus Dei II
!!!OMD: Agnus Dei II
0r	0r	0r	1A	0r
.	.	.	4A/	.
.	.	.	4B\	.
.	.	.	4c\	.
.	.	.	4d\	.
=41	=41	=41	=41	=41
0r	0r	0r	0e	2r
.	.	.	.	2.c/
.	.	.	.	4d/
.	.	.	.	4e/
.	.	.	.	4f/
=42	=42	=42	=42	=42
0r	0r	0r	0e	2.g/
.	.	.	.	4a/
.	.	.	.	2b\
.	.	.	.	[2cc\
=43	=43	=43	=43	=43
0r	0r	0r	0d	2cc\]
.	.	.	.	4b\
.	.	.	.	4a/
.	.	.	.	1b
=44	=44	=44	=44	=44
0r	0r	0r	1c	0e
.	.	.	2r	.
.	.	.	2A/	.
=45	=45	=45	=45	=45
0r	0r	0r	4A/	1r
.	.	.	4B\	.
.	.	.	4c\	.
.	.	.	4d\	.
.	.	.	2e\	2r
.	.	.	[2f\	[2a/
=46	=46	=46	=46	=46
0r	0r	0r	2f\]	2a/]
.	.	.	4e\	4g/
.	.	.	4d\	4f/
.	.	.	1e	1g
=47	=47	=47	=47	=47
0r	0r	0r	0A	2a/
.	.	.	.	1cc
.	.	.	.	4b\
.	.	.	.	4a/
=48	=48	=48	=48	=48
0r	0r	0r	2r	2b\
.	.	.	1d	2a/
.	.	.	.	4b\
.	.	.	.	4a/
.	.	.	2B\	4g/
.	.	.	.	4f/
=49	=49	=49	=49	=49
0r	0r	0r	1c	1e
.	.	.	2d\	2r
.	.	.	[2f\	4d/
.	.	.	.	4e/
=50	=50	=50	=50	=50
0r	0r	0r	2f\]	4f/
.	.	.	.	4g/
.	.	.	4e\	4a/
.	.	.	4d\	4b\
.	.	.	2e\	2cc\
.	.	.	2d\	[2b\
=51	=51	=51	=51	=51
0r	0r	0r	4e\	2b\]
.	.	.	4d\	.
.	.	.	4c\	2.g/
.	.	.	4B\	.
.	.	.	1A	.
.	.	.	.	4f#i/
.	.	.	.	2f#i/
=52	=52	=52	=52	=52
0r	0r	0r	1G	[0g
.	.	.	2r	.
.	.	.	4c\	.
.	.	.	4B\	.
=53	=53	=53	=53	=53
0r	0r	0r	4c\	0g]
.	.	.	4d\	.
.	.	.	1e	.
.	.	.	4d\	.
.	.	.	4c\	.
=54	=54	=54	=54	=54
0r	0r	0r	2B\	2r
.	.	.	2c\	4g/
.	.	.	.	4f/
.	.	.	2G/	4g/
.	.	.	.	4a/
.	.	.	[2d\	[2b\
=55	=55	=55	=55	=55
0r	0r	0r	2d\]	2b\]
.	.	.	4c\	4a/
.	.	.	4B\	4g/
.	.	.	2c\	2a/
.	.	.	2d\	2b\
=56	=56	=56	=56	=56
0r	0r	0r	1e	2e/
.	.	.	.	1b
.	.	.	[1d	.
.	.	.	.	4a/
.	.	.	.	4g/
=57	=57	=57	=57	=57
0r	0r	0r	2d\]	2a/
.	.	.	4c\	2b\
.	.	.	4B\	.
.	.	.	4A/	1cc
.	.	.	4B\	.
.	.	.	4c\	.
.	.	.	8B\L	.
.	.	.	8c\J	.
=58	=58	=58	=58	=58
0r	0r	0r	4d\	2b\
.	.	.	4c\	.
.	.	.	4B\	1a
.	.	.	4A/	.
.	.	.	1B	.
.	.	.	.	2g#i/
=59	=59	=59	=59	=59
0r	0r	0r	0A	1a
.	.	.	.	2r
.	.	.	.	2e/
=60	=60	=60	=60	=60
0r	0r	0r	1r	2e/
.	.	.	.	1f
.	.	.	2r	.
.	.	.	2A/	4e/
.	.	.	.	4d/
=61	=61	=61	=61	=61
0r	0r	0r	2A/	2e/
.	.	.	1B	1d
.	.	.	4A/	2b\
.	.	.	4G/	.
=62	=62	=62	=62	=62
0r	0r	0r	2A/	2cc\
.	.	.	2F/	2a/
.	.	.	1G	2b\
.	.	.	.	[2dd\
=63	=63	=63	=63	=63
0r	0r	0r	2r	4dd\]
.	.	.	.	4cc\
.	.	.	2d\	4b\
.	.	.	.	4a/
.	.	.	2e\	2.g/
.	.	.	2c\	.
.	.	.	.	4a/
=64	=64	=64	=64	=64
0r	0r	0r	2d\	2b\
.	.	.	2.f\	1a
.	.	.	4e\	.
.	.	.	4d\	[2dd\
.	.	.	4c\	.
=65	=65	=65	=65	=65
0r	0r	0r	2B\	2dd\]
.	.	.	2c\	1cc
.	.	.	1d	.
.	.	.	.	2b\
=66	=66	=66	=66	=66
0r	0r	0r	0c	2.cc\
.	.	.	.	4b\
.	.	.	.	2g/
.	.	.	.	[2a/
=67	=67	=67	=67	=67
0r	0r	0r	1r	4a/]
.	.	.	.	4g/
.	.	.	.	2e/
.	.	.	2r	2.f/
.	.	.	2d\	.
.	.	.	.	4e/
=68	=68	=68	=68	=68
0r	0r	0r	2.e\	1c
.	.	.	4d\	.
.	.	.	2B\	1r
.	.	.	[2c\	.
=69	=69	=69	=69	=69
0r	0r	0r	4c\]	2r
.	.	.	4B\	.
.	.	.	2G/	2g/
.	.	.	2.A/	2e/
.	.	.	.	2f/
.	.	.	4G/	.
=70	=70	=70	=70	=70
0r	0r	0r	0E	2g/
.	.	.	.	2a/
.	.	.	.	2b\
.	.	.	.	2cc\
=71	=71	=71	=71	=71
0r	0r	0r	2r	2.dd\
.	.	.	2B\	.
.	.	.	.	4cc\
.	.	.	2G/	2b\
.	.	.	2A/	2a/
=72	=72	=72	=72	=72
0r	0r	0r	2B\	2g/
.	.	.	2c\	4f/
.	.	.	.	4e/
.	.	.	2d\	2f/
.	.	.	2e\	2e/
=73	=73	=73	=73	=73
0r	0r	0r	4f\	2r
.	.	.	4e\	.
.	.	.	4d\	1a
.	.	.	4c\	.
.	.	.	1B	.
.	.	.	.	2g/
=74	=74	=74	=74	=74
0r	0r	0r	1A	2f/
.	.	.	.	4e/
.	.	.	.	4d/
.	.	.	2r	2c/
.	.	.	[2A/	[2cc\
=75	=75	=75	=75	=75
0r	0r	0r	2A/]	4cc\]
.	.	.	.	4b\
.	.	.	2G/	4a/
.	.	.	.	4g/
.	.	.	2F/	2a/
.	.	.	4E/	4g/
.	.	.	4D/	4f/
=76	=76	=76	=76	=76
0r	0r	0r	2C/	2e/
.	.	.	2.c\	2A/
.	.	.	.	2r
.	.	.	4B\	.
.	.	.	4A/	4A/
.	.	.	4G/	4B/
=77	=77	=77	=77	=77
0r	0r	0r	2A/	4c/
.	.	.	.	4d/
.	.	.	4G/	4e/
.	.	.	4F/	4f/
.	.	.	2E/	4g/
.	.	.	.	4e/
.	.	.	2D/	[2f/
=78	=78	=78	=78	=78
0r	0r	0r	1E	2f/]
.	.	.	.	2.e/
.	.	.	1F	.
.	.	.	.	4d/
.	.	.	.	2d/
=79	=79	=79	=79	=79
0r	0r	0r	0El	0el
!!LO:LB:i:g=z
=80||	=80||	=80||	=80||	=80||
*>C	*>C	*>C	*>C	*>C
*clefF4	*clefGv2	*clefGv2	*clefGv2	*clefG2
*k[]	*k[]	*k[]	*k[]	*k[]
*M2/1	*M2/1	*M2/1	*M2/1	*M2/1
*met(C2)	*met(C2)	*met(C2)	*met(C2)	*met(C2)
!!section: Agnus Dei III
!!!OMD: Agnus Dei III
!	!LO:TX:X=-40:Z=8:t=Canon at the upper fifth (four breves)	!	!	!
1.AA	1.A	0r	0r	0r
2BB/	4G/	.	.	.
.	4F/	.	.	.
=81.	=81.	=81.	=81.	=81.
2C/	2E/	0r	0r	0r
2D\	2F/	.	.	.
1BB	4G/	.	.	.
.	4F/	.	.	.
.	4E/	.	.	.
.	4D/	.	.	.
=82	=82	=82	=82	=82
1AA	2.C/	0r	1.c	0r
.	4D/	.	.	.
2.C/	4E/	.	.	.
.	4F/	.	.	.
.	[2G/	.	4B\	.
4D\	.	.	4A/	.
=83.	=83.	=83.	=83.	=83.
2E\	2G/]	0r	2G/	0r
2F\	4F/	.	2A/	.
.	4E/	.	.	.
1D	1F	.	4B\	.
.	.	.	4A/	.
.	.	.	4G/	.
.	.	.	4F/	.
=84	=84	=84	=84	=84
1C	0G	1.e	2.E/	0r
.	.	.	4F/	.
2.E\	.	.	4G/	.
.	.	.	4A/	.
.	.	4d\	[2B\	.
4F\	.	4c\	.	.
=85.	=85.	=85.	=85.	=85.
2G\	0r	2B\	2B\]	0r
2A\	.	2c\	4A/	.
.	.	.	4G/	.
1F	.	4d\	1A	.
.	.	4c\	.	.
.	.	4B\	.	.
.	.	4A/	.	.
=86	=86	=86	=86	=86
1E	0r	2.G/	0B	1.g
.	.	4A/	.	.
2.G\	.	4B\	.	.
.	.	4c\	.	.
.	.	[2d\	.	4f/
4A\	.	.	.	4e/
=87.	=87.	=87.	=87.	=87.
2B\	0r	2d\]	0r	2d/
2c\	.	4c\	.	2e/
.	.	4B\	.	.
1A	.	1c	.	4f/
.	.	.	.	4e/
.	.	.	.	4d/
.	.	.	.	4c/
=88	=88	=88	=88	=88
1G	0r	0d	0r	1B
[1G	.	.	.	2.B/
.	.	.	.	4c/
=89.	=89.	=89.	=89.	=89.
2G\]	0r	0r	0r	2d/
4F\	.	.	.	1e
4E\	.	.	.	.
1F	.	.	.	.
.	.	.	.	2d/
=90	=90	=90	=90	=90
2E\	2r	0r	0r	0e
2.G\	2E/	.	.	.
.	2.E/	.	.	.
4F\	.	.	.	.
[2E\	.	.	.	.
.	4F/	.	.	.
=91.	=91.	=91.	=91.	=91.
2E\]	2G/	0r	0r	0r
4D\	1A	.	.	.
4C/	.	.	.	.
1BB	.	.	.	.
.	2G#i/	.	.	.
=92	=92	=92	=92	=92
[0AA	1A	0r	2r	0r
.	.	.	2A/	.
.	2A/	.	2.A/	.
.	[2F/	.	.	.
.	.	.	4B\	.
=93.	=93.	=93.	=93.	=93.
0AA]	2F/]	0r	2c\	0r
.	4E/	.	1d	.
.	4D/	.	.	.
.	1E	.	.	.
.	.	.	2c#i\	.
=94	=94	=94	=94	=94
1r	1D	2r	0d	2r
.	.	2B\	.	2b\
[1G	1r	2.B\	.	2b\
.	.	.	.	[2dd\
.	.	4c\	.	.
=95.	=95.	=95.	=95.	=95.
2G\]	0r	2d\	1r	2dd\]
2E\	.	1e	.	4cc\
.	.	.	.	4b\
1F	.	.	1A	1a
.	.	2d\	.	.
=96	=96	=96	=96	=96
[0E	0r	1e	2B\	2g/
.	.	.	2G/	2e/
.	.	2e\	2.c\	2.e/
.	.	[2c\	.	.
.	.	.	4d\	4f/
=97.	=97.	=97.	=97.	=97.
0E]	0r	2c\]	1e	2g/
.	.	4B\	.	1a
.	.	4A/	.	.
.	.	1B	1E	.
.	.	.	.	2g#i/
=98	=98	=98	=98	=98
2r	2r	1A	0r	0a
2F\	2D/	.	.	.
2F\	2D/	1r	.	.
[2D\	[2F/	.	.	.
=99.	=99.	=99.	=99.	=99.
2D\]	2F/]	0r	0r	0r
4C/	4E/	.	.	.
4BB/	4D/	.	.	.
2D\	2F/	.	.	.
4C/	2G/	.	.	.
4BB/	.	.	.	.
=100	=100	=100	=100	=100
2AA/	1A	0r	2r	0r
2A\	.	.	2F/	.
2A\	1r	.	2F/	.
[2F\	.	.	[2A/	.
=101.	=101.	=101.	=101.	=101.
2F\]	0r	0r	2A/]	0r
4E\	.	.	4G/	.
4D\	.	.	4F/	.
2F\	.	.	2A/	.
2E\	.	.	2B\	.
=102	=102	=102	=102	=102
1C	0r	2r	1c	1r
.	.	2A/	.	.
1r	.	2A/	2c\	[1a
.	.	[2c\	[2A/	.
=103.	=103.	=103.	=103.	=103.
0r	0r	2c\]	2A/]	1a]
.	.	4B\	4G/	.
.	.	4A/	4F/	.
.	.	2c\	2A/	1a
.	.	2d\	4G/	.
.	.	.	4F/	.
=104	=104	=104	=104	=104
2r	2r	1e	1E	1g
2C/	2E/	.	.	.
2C/	2E/	1r	1r	2g/
2C/	[2G/	.	.	[2e/
=105.	=105.	=105.	=105.	=105.
2.E\	4G/]	0r	0r	2e/]
.	4F/	.	.	.
.	1E	.	.	2e/
4G\	.	.	.	.
1F	.	.	.	1a
.	2D/	.	.	.
=106	=106	=106	=106	=106
1E	1E	0r	2r	2.g/
.	.	.	2G/	.
.	.	.	.	4f/
2C/	1r	.	2G/	2e/
[2D\	.	.	[2B\	2d/
=107.	=107.	=107.	=107.	=107.
4D\]	0r	0r	4B\]	2f/
4C/	.	.	4A/	.
2BB/	.	.	1G	2g/
1AA	.	.	.	1a
.	.	.	2F#i/	.
=108	=108	=108	=108	=108
0GG	2r	2r	0G	2r
.	2G/	2B\	.	2d/
.	2G/	2B\	.	2e/
.	2D/	[2d\	.	[2g/
=109.	=109.	=109.	=109.	=109.
0r	2.G/	4d\]	0r	4g/]
.	.	4c\	.	4f/
.	.	1B	.	1e
.	4A/	.	.	.
.	1F	.	.	.
.	.	2A/	.	2d/
=110	=110	=110	=110	=110
0r	[0E	1B	2r	2e/
.	.	.	2B\	2.g/
.	.	1r	2c\	.
.	.	.	.	4a/
.	.	.	2B\	[2b\
=111.	=111.	=111.	=111.	=111.
0r	0E]	0r	1c	2b\]
.	.	.	.	2.a/
.	.	.	1B	.
.	.	.	.	4g#i/
.	.	.	.	2g#i/
=112	=112	=112	=112	=112
2r	0r	2r	[0A	0a
2D\	.	2d\	.	.
2D\	.	2d\	.	.
[2D\	.	2A/	.	.
=113.	=113.	=113.	=113.	=113.
4D\]	0r	2.d\	0A]	2r
4E\	.	.	.	.
4F\	.	.	.	2a/
4G\	.	4e\	.	.
1A	.	1c	.	2a/
.	.	.	.	2a/
=114	=114	=114	=114	=114
0E	1r	[0B	0r	1.g
.	[1G	.	.	.
.	.	.	.	4f/
.	.	.	.	4e/
=115.	=115.	=115.	=115.	=115.
0r	2G/]	0B]	0r	2d/
.	4F/	.	.	2e/
.	4E/	.	.	.
.	2D/	.	.	2f/
.	2E/	.	.	2g/
=116	=116	=116	=116	=116
0r	2F/	0r	1r	1a
.	2G/	.	.	.
.	1A	.	[1c	1e
=117.	=117.	=117.	=117.	=117.
1.C	0E	0r	2c\]	1r
.	.	.	4B\	.
.	.	.	4A/	.
.	.	.	2G/	[1g
4BB/	.	.	2A/	.
4AA/	.	.	.	.
=118	=118	=118	=118	=118
2GG/	0r	1r	2B\	2g/]
2AA/	.	.	2c\	4f/
.	.	.	.	4e/
2BB/	.	[1d	1d	2d/
2C/	.	.	.	2e/
=119.	=119.	=119.	=119.	=119.
1.D	1r	2d\]	1A	2f/
.	.	4c\	.	2g/
.	.	4B\	.	.
.	1A	2A/	1r	[1a
4C/	.	2B\	.	.
4BB/	.	.	.	.
=120	=120	=120	=120	=120
2AA/	1A	2c\	0r	2a/]
2BB/	.	2d\	.	4g/
.	.	.	.	4f/
2C/	[1G	1e	.	2e/
2D\	.	.	.	2f/
=121.	=121.	=121.	=121.	=121.
2E\	2G/]	0B	1r	2g/
4D\	4F/	.	.	2a/
4C/	4E/	.	.	.
1BB	2D/	.	1G	1b
.	2D/	.	.	.
=122	=122	=122	=122	=122
[0AA	0E	0r	2A/	1cc
.	.	.	2.c\	.
.	.	.	.	2r
.	.	.	4B\	.
.	.	.	[2A/	2cc\
=123.	=123.	=123.	=123.	=123.
0AA]	2r	1r	2A/]	2cc\
.	2E/	.	4G/	1a
.	.	.	4F/	.
.	2.E/	1e	1E	.
.	.	.	.	4g/
.	4D/	.	.	4f/
=124	=124	=124	=124	=124
2r	2C/	1e	0A	2e/
2AA/	2C/	.	.	2.a/
[1D	2D/	[1d	.	.
.	.	.	.	4g/
.	[2A/	.	.	4f/
.	.	.	.	4e/
=125.	=125.	=125.	=125.	=125.
2D\]	4A/]	2d\]	0A	2f/
.	4G/	.	.	.
2AA/	4F/	4c\	.	2.e/
.	4E/	4B\	.	.
1D	1F	2A/	.	.
.	.	.	.	4d/
.	.	2A/	.	2d/
=126	=126	=126	=126	=126
1G	[0El	0B	2r	[0e
.	.	.	2G/	.
2r	.	.	2.G/	.
2G\	.	.	.	.
.	.	.	4F/	.
=127.	=127.	=127.	=127.	=127.
2G\	0E_	2r	2E/	0e]
2.G\	.	2B\	2E/	.
.	.	2.B\	1G	.
4F\	.	.	.	.
[2E\	.	.	.	.
.	.	4A/	.	.
=128	=128	=128	=128	=128
4E\]	0E_	2G/	4G/	[0el
4D\	.	.	4F/	.
2.C/	.	2G/	4E/	.
.	.	.	4D/	.
.	.	2A/	2C/	.
4BB/	.	.	.	.
4AA/	.	[2e\	[2c\	.
4GG/	.	.	.	.
=129.	=129.	=129.	=129.	=129.
0AA	0E_	4e\]	4c\]	0e_
.	.	4d\	4B\	.
.	.	4c\	4A/	.
.	.	4B\	4G/	.
.	.	1c	1A	.
=130	=130	=130	=130	=130
0EEl	0E]	0Bl	0Gl	0e]
==	==	==	==	==
*-	*-	*-	*-	*-
!!!RDF**kern: l=long note in original notation
!!!RDF**kern: i=editorial accidental
!!!ENC:	Chris Gage 01-29-2013
!!!END:	2013/07/17/
!!!EED:	Jesse Rodin
!!!EEV:	2013/07/19/
!!!ONB:	Translated from MusicXML and edited on 2013/07/19/ by Craig Sapp
!!muse2ps: T^@{OPR}^u^@{ONM}{. }@{OTL}^C^@{COM}^i2I150v85,85,85,85,130Q16
